X:1
T:Jesu dulcis memoria
T:Jesu dulcis memoria
T:André Vierendeels (08/09/10)
C:André Vierendeels
C:(08/09/10)
%%score [ 1 2 3 4 ]
L:1/8
Q:1/4=120
M:3/2
K:F
V:1 treble nm="Soprano" snm="S"
V:2 treble nm="Alto" snm="A"
V:3 treble-8 nm="Tenor" snm="T"
V:4 bass nm="Bass" snm="B"
V:1
 A4 A4 A4 | A8 A4 | B8 A4 | !fermata!G12 | G4 A4 B4 | c8 c4 | =B8 B4 | !fermata!A12 | c4 c4 B4 | %9
w: Je- su dul-|cis me-|mo- ri-|a,|dans ve- ra|cor- dis|gau- di-|a:|sed su- per|
w: Nil ca- ni-|tur su-|a- vi-|us,|nil au- di-|tur ju-|cun- di-|us,|nil co- gi-|
w: Je- su spes|pae- ni-|ten- ti-|bus,|quam pi- us|es pe-|ten- ti-|bus!|Quam bo- nus|
w: Nec lin- gua|va- let|di- ce-|re,|nec lit- te-|ra ex-|pri- me-|re:|ex- per- tus|
w: Sit Je- su|no- strum|gau- di-|um,|qui es fu-|tu- rus|pre- mi-|um:|sit no- stra|
 B8 A4 | A8 G4 | !fermata!G12 | A8 A4 | F8 G4 | F4 E4 E4 | !fermata!D12 |] %16
w: mel et|o- mni-|a,|e- jus|dul- cis|prae- sen- ti-|a.|
w: ta- tur|dul- ci-|us,|quam Je-|sus De-|i Fi- li-|us.|
w: te quae-|ren- ti-|bus!|Sed quid|in- ve-|ni en- ti-|bus?|
w: po- test|cre- de-|re,|quid sit|Je- sum|di- li- ge-|re.|
w: in te|glo- ri-|a,|per cun-|cta sem-|per sae- cu-|la.|
V:2
 F4 F4 E2 F2 | D2 C4 E2 F4 | F4 C4 F4 | !fermata!E12 | D4 F4 F4 | F8 E4 | G8 D4 | !fermata!F12 | %8
w: Je- su dul- *|cis _ _ me-|mo- * ri-|a,|dans ve- ra|cor- dis|gau- di-|a:|
w: Nil ca- ni- *|tur _ _ su-|a- * vi-|us,|nil au- di-|tur ju-|cun- di-|us,|
w: Je- su spes _|pae- * * ni-|ten- * ti-|bus,|quam pi- us|es pe-|ten- ti-|bus!|
w: Nec lin- gua _|va- * * let|di- * ce-|re,|nec lit- te|ra ex-|pri- me-|re:|
w: Sit Je- su _|no- * * strum|gau- * di-|um,|qui es fu-|tu- rus|pre- mi-|um:|
 F4 G4 G4 | F4 G2 F2 D2 E2 | F2 E2 D4 E4 | !fermata!D12 | F8 F4 | D8 D4 | F4 A4 A4 | %15
w: sed su- per|mel et _ _ _|o- * * mni-|a,|e- jus|dul- cis|prae- sen- ti-|
w: nil co- gi-|ta- tur _ _ _|dul- * * ci-|us,|quam Je-|sus De-|i Fi- li-|
w: Quam bo- nus|te quae- * * *|ren- * * ti-|bus!|Sed quid|in- ve-|ni- en- ti-|
w: ex- per- tus|po- test _ _ _|cre- * * de-|re,|quid sit|Je- sum|di- li- ge-|
w: sit no- stra|in te _ _ _|glo- * * ri-|a,|per cun-|cta sem-|per sae- cu-|
 !fermata!F12 |] %16
w: a.|
w: us.|
w: bus?|
w: re.|
w: la.|
V:3
 d4 c4 c4 | A2 G2 A2 B2 c4 | B4 G4 c2 B2 | !fermata!c12 | B4 c4 d4 | A8 G4 | d4 e2 d2 c2 =B2 | %7
w: Je- su dul-|cis _ _ _ me-|mo- * ri- *|a,|dans ve- ra|cor- dis|gau- * * * di-|
w: Nil ca- ni-|tur _ _ _ su-|a- * vi- *|us,|nil au- di-|tur ju-|cun- di- * * *|
w: Je- su spes|pae- * * * ni-|ten- * ti- *|bus,|quem pi- us|es pe-|ten- ti- * * *|
w: Nec lin- gua|va- * * * let|di- * ce- *|re,|nec lit- te-|ra ex-|pri- me- * * *|
w: Sit Je- su|no- * * * strum|gau- * di- *|um,|qui es fu-|tu- rus|pre- mi- * * *|
 !fermata!c12 | A4 c4 d2 c2 | d8 A4 | c2 B2 A2 B2 c4 | !fermata!=B8 z4 | d8 c4 | B4 A4 B4 | %14
w: a:|sed su- per _|mel et|o- * * * mni-|a,|e- jus|dul- * cis|
w: us,|nil co- gi- *|ta- tur|dul _ _ _ ci-|us,|quam Je-|sus _ De-|
w: us!|Quam bo- mu _|te quae-|ren- * * * ti-|bus!|Sed quid|in- * ve-|
w: re:|ex- per- tus _|po- test|cre- * * * de-|re,|quid sit|Je- * sum|
w: um:|sit no- stra _|in te|glo- * * * ri-|a,|per cun-|cta _ sem-|
 c4 d4 c4 | A12 |] %16
w: prae- sen- ti-||
w: i Fi- li-||
w: ni- en- ti-||
w: di li- ge-||
w: per sae- cu-||
V:4
 D,4 F,4 A,4 | D,2 E,2 F,2 G,2 F,4 | D,4 E,4 F,4 | !fermata!C,12 | G,4 F,4 B,,4 | F,8 C,4 | %6
w: Je- su dul-|cis _ _ _ me-|mo- * ri-|a,|dans ve- ra|cor- dis|
w: Nil ca- ni-|tur _ _ _ su-|a- * vi-|us,|nil au- di-|tur ju-|
w: Je- su spes|pae- * * * ni-|ten- * ti-|bus;|quem pi- us|es pe-|
w: Nec lin- gua|va- * * * let|di- * ce-|re,|nec lit- te-|ra ex-|
w: Sit Je- su|no- * * * strum|gau- * di-|um,|qui es fu-|tu- rus|
 G,2 F,2 E,2 F,2 G,4 | !fermata!F,12 | F,4 E,4 G,2 A,2 | B,4 G,4 D,4 | A,2 G,2 F,2 G,2 C,4 | %11
w: gau- * * * di-|a:|sed su- per _|mel _ et|o- * * * mni-|
w: cun- * * * di-|us|nil co- gi- *|ta- * tur|dul- * * * ci-|
w: ten- * * * ti-|bus!|Quam bo- nus _|te _ quae-|ren- * * * ti-|
w: pri- * * * me-|re:|ex- per- tus _|po- * test|cre- * * * de-|
w: pre- * * * mi-|um:|sit no- stra _|in _ te|glo- * * * ri-|
 !fermata!G,12 | D,8 F,4 | B,,4 D,4 G,4 | A,4 A,4 A,,4 | !fermata!D,12 |] %16
w: a,|e- jus|dul- * cis|prae- sen- ti-|a.|
w: us,|quam Je-|sus _ De-|i Fi- li-|us.|
w: bus!|Sed quid|in- * ve-|ni- en- ti-|bus?|
w: re,|quid sit|Je- * sum|di- li- ge-|re.|
w: a,|per cun-|cta _ sem-|per sae- cu-|la.|

